X:1
T:Sail Away Ladies
M:2/4
L:1/8
K:E
 GB BG| FE E2| E/2E/2 EB, C| E3/2 E/2 E2| G B/2B/2 BG| FE E2| E/2E/2 EB, C|\
 E3/2 E/2 E2| GB BB| c3/2 c/2 c2| cc ec| B3/2 B/2 B c-| cBG/2-F/2 E|\
 F3/2 F/2 F2| GF EC| E3/2 E/2 E2|

